packages/dialtone-icons/src/svg/icons/os/files.svg

<svg width="12" height="12" viewBox="0 0 12 12" fill="none" xmlns="http://www.w3.org/2000/svg">
<path fill-rule="evenodd" clip-rule="evenodd" d="M1.5 3.3C1.77614 3.3 2 3.52386 2 3.8V10.2C2 10.2374 2.02373 10.3166 2.10355 10.3964C2.18338 10.4763 2.26262 10.5 2.3 10.5H7.2C7.47614 10.5 7.7 10.7239 7.7 11C7.7 11.2761 7.47614 11.5 7.2 11.5H2.3C1.93738 11.5 1.61662 11.3237 1.39645 11.1036C1.17627 10.8834 1 10.5626 1 10.2V3.8C1 3.52386 1.22386 3.3 1.5 3.3Z" fill="black"/>
<path fill-rule="evenodd" clip-rule="evenodd" d="M3.39645 0.896447C3.61662 0.676273 3.93738 0.5 4.3 0.5H7.75C7.88261 0.5 8.00979 0.552678 8.10355 0.646447L10.3536 2.89645C10.4473 2.99021 10.5 3.11739 10.5 3.25V8.2C10.5 8.56262 10.3237 8.88338 10.1036 9.10355C9.88338 9.32373 9.56262 9.5 9.2 9.5H4.3C3.93738 9.5 3.61662 9.32373 3.39645 9.10355C3.17627 8.88338 3 8.56262 3 8.2V1.8C3 1.43738 3.17627 1.11662 3.39645 0.896447ZM4.3 1.5C4.26262 1.5 4.18338 1.52373 4.10355 1.60355C4.02373 1.68338 4 1.76262 4 1.8V8.2C4 8.23738 4.02373 8.31662 4.10355 8.39645C4.18338 8.47627 4.26262 8.5 4.3 8.5H9.2C9.23738 8.5 9.31662 8.47627 9.39645 8.39645C9.47627 8.31662 9.5 8.23738 9.5 8.2V4H7.5C7.22386 4 7 3.77614 7 3.5V1.5H4.3ZM8 3V2L9.04289 3H8Z" fill="black"/>
</svg>

<svg xmlns="http://www.w3.org/2000/svg" width="12" height="12" fill="none" viewBox="0 0 12 12">
  <path fill="#000" fill-rule="evenodd" d="M3.396.896C3.616.676 3.937.5 4.3.5h3.45a.5.5 0 0 1 .354.146l2.25 2.25a.5.5 0 0 1 .146.354V8.2c0 .363-.176.683-.396.904-.22.22-.541.396-.904.396H4.3c-.363 0-.683-.176-.904-.396A1.301 1.301 0 0 1 3 8.2V1.8c0-.363.176-.683.396-.904ZM4.3 1.5c-.037 0-.117.024-.196.104-.08.08-.104.159-.104.196v6.4c0 .037.024.117.104.196.08.08.159.104.196.104h4.9c.037 0 .117-.024.196-.104.08-.08.104-.159.104-.196V3.457L7.543 1.5H4.3Z" clip-rule="evenodd"/>
  <path fill="#000" fill-rule="evenodd" d="M1.5 3.3a.5.5 0 0 1 .5.5v6.4c0 .037.024.117.104.197.08.08.159.103.196.103h4.9a.5.5 0 0 1 0 1H2.3a1.3 1.3 0 0 1-.904-.396A1.301 1.301 0 0 1 1 10.2V3.8a.5.5 0 0 1 .5-.5Zm6-2.8A.5.5 0 0 1 8 1v2h2a.5.5 0 0 1 0 1H7.5a.5.5 0 0 1-.5-.5V1a.5.5 0 0 1 .5-.5Z" clip-rule="evenodd"/>
</svg>
